!!!COM: Haydn, Franz Joseph
!!!OTL: String Quartet in G Major
!!!OPS: Opus 33
!!!ONM: No. 5
!!!OMD: Finale: Allegretto
!!!OMV: 4
!!!SCT: H III:41
!!!SCA: Thematisch-bibliographisches Werkevererzeichnis (A. van Hoboken)
!!!YOR: Trautwein Edition
!!!ENC: Frances Bennion
!!!CDT: 1732/3/31/-1809/5/31/
!!!CNT: Oesterreich
!!!YEC: Copyright (c) 1994, 2000 Center for Computer Assisted Research in the Humanities
!!!YEM: Rights to all derivative editions reserved.
!!!YEM: Refer to licensing agreement for further details.
!!!YEN: United States of America
**kern	**kern	**kern	**kern
*k[f#]	*k[f#]	*k[f#]	*k[f#]
*G:	*G:	*G:	*G:
*clefF4	*clefC3	*clefG	*clefG
*M6/8	*M6/8	*M6/8	*M6/8
2r	2r	2r	2r
8r	8r	8r	8r
8r	8r	8r	8dd
=1	=1	=1	=1
4G	4d	4b	8.dd
.	.	.	16cc#
8G	8d	8b	8dd
4G	4d	4b	8.dd
.	.	.	16cc#
8G	8g	8b	8dd
=2	=2	=2	=2
4C	4g	4cc	8.ee
.	.	.	16dd#
8C	8g	8e	8ee
4D	4f#	4f#	4a
8D	8f#	8a	8cc
=3	=3	=3	=3
4G	4g	4d	8.b
.	.	.	16cc
8G	8d	8B	8dd
4C	4e	4e	8.a
.	.	.	16b
8C	8e	8c	8cc
=4	=4	=4	=4
[2D	[2d	4.B	4.g
.	.	4A	4f#
8D]	8d]	.	.
8r	8r	8r	8d
=5	=5	=5	=5
4F#	4A	4c	8.d
.	.	.	16e
8F#	8A	8c	8d
4F#	4A	4c	8.d
.	.	.	16e
8F#	8A	8c	8d
=6	=6	=6	=6
4F#	4d	4A	8.cc
.	.	.	16dd
8F#	8d	8A	8cc
4G	4d	4B	4b
8G	8G	8b	8b
=7	=7	=7	=7
4C	4G	4b	8.ee
.	.	.	16dd#
8C	8G	8b	8ee
4C	4E	4a#	8.gg
.	.	.	16ff#
8C	8G	8a#	8ee
=8	=8	=8	=8
[2BB	4.G	4.a#	4.ee
.	4F#	4b	4dd#
8BB]	.	.	.
8r	8r	8r	8dd
=9	=9	=9	=9
4B	4B	4f#	8.dd
.	.	.	16cc#
8B	8B	8f#	8dd
4E	4B	4g	8.ee
.	.	.	16dd
8E	8B	8g	8ee
=10	=10	=10	=10
4A	4A	4e	8.cc#
.	.	.	16b
8A	8A	8e	8cc#
4D	4A	4f#	4dd
8F#	8d	8a	8cc
=11	=11	=11	=11
4G	4d	4d	8.b
.	.	.	16cc
8G	8d	8B	8dd
4C	4e	4e	8.a
.	.	.	16b
8C	8e	8c	8cc
=12	=12	=12	=12
[2D	[2d	4.B	4.g
.	.	4A	4f#
8D]	8d]	.	.
8D	8F#	8r	8d
=13	=13	=13	=13
4D	4G#	4B	8.e
.	.	.	16f#
8D	8G#	8B	8e
4C	4A	4c	8.e
.	.	.	16a
8C	8A	8c	8cc
=14	=14	=14	=14
4C	4F#	4A	8.d
.	.	.	16e
8C	8F#	8A	8d
4BB	4G	4B	8.d
.	.	.	16g
8BB	8B	8d	8b
=15	=15	=15	=15
4C	4c	4e	8.a
.	.	.	16b
8C	8c	8e	8cc
4D	4d	4B	8.g
.	.	.	16a
8D	8F#	8A	8f#
=16	=16	=16	=16
[2GG	4.F#	4.c	4.a
.	4G	4B	4g
8GG]	.	.	.
8r	8r	8r	8dd
=17	=17	=17	=17
4G	4d	4B	16cc#
.	.	.	16dd
.	.	.	16ee
.	.	.	16dd
8G	8d	8B	8dd
4G	4d	4B	16cc#
.	.	.	16dd
.	.	.	16ee
.	.	.	16dd
8G	8g	8B	8dd
=18	=18	=18	=18
4C	4g	4c	16dd#
.	.	.	16ee
.	.	.	16ff#
.	.	.	16ee
8C	8g	8e	8gg
4D	4f#	4f#	4a
8D	8A	8f#	8ccc
=19	=19	=19	=19
4G	4d	4g	16ccc
.	.	.	16bb
.	.	.	16aa
.	.	.	16gg
8G	8B	8d	16ff#
.	.	.	16ee
4C	4c	4e	16dd
.	.	.	16cc
.	.	.	16b
.	.	.	16a
8C	8c	8c	16cc
.	.	.	16a
=20	=20	=20	=20
[2D	[2d	4.B	4.g
.	.	4A	4f#
8D]	8d]	.	.
8r	8r	8r	8d
=21	=21	=21	=21
4F#	4A	4c	16c#
.	.	.	16d
.	.	.	16e
.	.	.	16d
8F#	8A	8c	8d
4F#	4A	4c	16cc#
.	.	.	16dd
.	.	.	16ee
.	.	.	16dd
8F#	8A	8c	8dd
=22	=22	=22	=22
4F#	4D	4a	16bb
.	.	.	16ccc
.	.	.	16eee
.	.	.	16ccc
8F#	8d	8a	16eee
.	.	.	16ccc
4G	4d	4d	4bb
8G	8g	8b	8bb
=23	=23	=23	=23
4C	4g	4b	16eee
.	.	.	16ddd#
.	.	.	16eee
.	.	.	16ddd#
8C	8g	8b	16eee
.	.	.	16ddd#
4C	4e	4a#	8eee
.	.	.	8gg
8C	8g	8a#	8ee
=24	=24	=24	=24
[2BB	8b	[2b	16dd#
.	.	.	16ee
.	8d#	.	16ff#
.	.	.	16gg#
.	8d#	.	16aa#
.	.	.	16bb
.	4d#	.	8b
8BB]	.	8b]	8r
8r	8r	8r	8dd
=25	=25	=25	=25
4B	4d	4f#	16cc#
.	.	.	16dd
.	.	.	16ff#
.	.	.	16dd
8B	8d	8f#	8b
4E	4e	4g	16ff#
.	.	.	16gg
.	.	.	16bb
.	.	.	16gg
8E	8e	8g	8ee
=26	=26	=26	=26
4A	4c#	4e	16b#
.	.	.	16cc#
.	.	.	16ee
.	.	.	16cc#
8A	8e	8e	16a
.	.	.	16cc#
4D	4d	4f#	4dd
8F#	8d	8a	16cc
.	.	.	16ccc
=27	=27	=27	=27
4G	4d	4g	16ccc
.	.	.	16bb
.	.	.	16aa
.	.	.	16gg
8G	8B	8d	16ff#
.	.	.	16ee
4C	4c	4e	16dd
.	.	.	16cc
.	.	.	16b
.	.	.	16a
8C	8c	8c	16cc
.	.	.	16a
=28	=28	=28	=28
[2D	[2d	4.B	4.g
.	.	4A	4f#
8D]	8d]	.	.
8D	8r	8r	8dd
=29	=29	=29	=29
4D	4G#	4B	16f
.	.	.	16e
.	.	.	16f
.	.	.	16e
8D	8G#	8B	16f
.	.	.	16e
4C	4A	4c	8ee
.	.	.	8cc
8C	8A	8c	8cc
=30	=30	=30	=30
4C	4F#	4A	16e-
.	.	.	16d
.	.	.	16e-
.	.	.	16d
8C	8F#	8A	16e-
.	.	.	16d
4BB	4G	4B	8dd
.	.	.	8b
8BB	8B	8d	8gg
=31	=31	=31	=31
4C	4c	4e	16A
.	.	.	16B
.	.	.	16c
.	.	.	16d
8C	8A	8e	16e
.	.	.	16f#
4D	4F#	4c	16g
.	.	.	16a
.	.	.	16b
.	.	.	16cc
8D	8F#	8c	16a
.	.	.	16f#
=32	=32	=32	=32
[2GG	4.F#	4.c	4.a
.	4G	4B	4g
8GG]	.	.	.
8r	8b	8dd	8r
=33	=33	=33	=33
4r	8.b	8.dd	2.r
.	16cc	16ee	.
8g	8b	8dd	.
8.g	8.b	8.dd	.
16f#	16cc	16ee	.
8g	8b	8dd	.
=34	=34	=34	=34
4.c	8.cc	8.ee	2r
.	16b	16dd#	.
.	8cc	8ee	.
8.d	8.f#	8a	.
.	.	8r	8r
16e	16g	.	.
8f#	8a	8dd	8ccc
=35	=35	=35	=35
4.g	4.b	4.dd	16bb
.	.	.	16ccc
.	.	.	16ddd
.	.	.	16eee
.	.	.	16fff#
.	.	.	16ggg
4.c	4.cc	[4ee	16fff#
.	.	.	16ggg
.	.	.	16fff#
.	.	.	16ggg
.	.	16ee]	16eee
.	.	16aa	16ccc
=36	=36	=36	=36
2.d	4dd	4.gg	4.bb
.	4.r	.	.
.	.	4ff#	4aa
.	8f#	8ddd	8ddd
=37	=37	=37	=37
8.d	8.f#	4.ccc	[2.ddd
16e	16g	.	.
8f#	8a	.	.
8.g	8.b	8.bb	.
16a	16cc	16aa	.
8b	8dd	8gg	.
=38	=38	=38	=38
4.cc	8.a	8.ff#	2ddd_
.	16g	16gg	.
.	8f#	8aa	.
4b	4g	4gg	.
.	.	.	8ddd]
8D	8A	8ff#	8ccc
=39	=39	=39	=39
8.G	8.B	4gg	8.bb
16A	16c	.	16aa
8B	8d	8b	8gg
4.c	8.e	4a#	8.gg
.	16f#	.	16ff#
.	8g	8a#	8ee
=40	=40	=40	=40
[2B	4.g	4.a#	4.ee
.	4f#	4b	4dd#
8B]	.	.	.
8r	8b	8dd	8ff#
=41	=41	=41	=41
2.r	4b	8.dd	8.ff#
.	.	16ee	16gg
.	8b	8dd	8ff#
.	4e	8.ee	8.gg
.	.	16ff#	16aa
.	8e	8gg	8bb
=42	=42	=42	=42
4.r	4a	8.cc#	8.ee
.	.	16dd	16ff#
.	8a	8ee	8gg
8.d	4d	4dd	8ff#
.	.	.	8r
16e	.	.	.
8f#	8a	8dd	8ccc
=43	=43	=43	=43
4.g	4.b	4.dd	16bb
.	.	.	16ccc
.	.	.	16ddd
.	.	.	16eee
.	.	.	16fff#
.	.	.	16ggg
4.c	4.cc	4ee	16fff#
.	.	.	16ggg
.	.	.	16fff#
.	.	.	16ggg
.	.	16ee	16eee
.	.	16aa	16ccc
=44	=44	=44	=44
[2d	[2dd	4.gg	4.bb
.	.	4ff#	4aa
16d]	8dd]	.	.
16e	.	.	.
8f#	8dd	8r	8ddd
=45	=45	=45	=45
8.g#	8.dd	4r	4.ddd
16a	16a	.	.
8b	8g#	8ee	.
4a	4a	8.gg	4.ccc#
.	.	16aa	.
8r	8r	8gg	.
=46	=46	=46	=46
8.d	8.a	8.ff#	4.ccc
16e	16g	16gg	.
8f#	8f#	8aa	.
4g	4g	4gg	4bb
8r	8D	8r	8B
=47	=47	=47	=47
4.CC	4.E	4r	8.A
.	.	.	16c
.	.	8c	8e
4.DD	4G	4B	8.d
.	.	.	16g
.	8A	8A	8f#
=48	=48	=48	=48
[2GG	4.F#	4.c	4.a
.	4G	4B	4g
8GG]	.	.	.
8r	8r	8b	8dd
=49	=49	=49	=49
4GG	16G	4b	8.dd
.	16g	.	.
.	16f#	.	.
.	16g	.	16cc#
8GG	16d	8b	8dd
.	16B	.	.
4GG	16G	4b	8.dd
.	16b	.	.
.	16g	.	.
.	16f#	.	16cc#
8GG	16e	8b	8dd
.	16d	.	.
=50	=50	=50	=50
4C	16c	4cc	8.ee
.	16cc	.	.
.	16b	.	.
.	16cc	.	16dd#
8C	16a	8e	8ee
.	16g	.	.
4D	16f#	4f#	4a
.	16g	.	.
.	16a	.	.
.	16d	.	.
8D	16e	8a	8cc
.	16f#	.	.
=51	=51	=51	=51
4GG	16g	4g	8.b
.	16f#	.	.
.	16e	.	.
.	16d	.	16cc
8GG	16c	8b	8dd
.	16B	.	.
4C	16c	4e	8.a
.	16d	.	.
.	16c	.	.
.	16B	.	16b
8r	16A	8c	8cc
.	16c	.	.
=52	=52	=52	=52
4D	16d	4.B	4.g
.	16dd	.	.
.	16cc#	.	.
.	16dd	.	.
8r	16cc#	.	.
.	16dd	.	.
4D	16d	4A	4f#
.	16f#	.	.
.	16a	.	.
.	16dd	.	.
8r	16a	8r	8d
.	16f#	.	.
=53	=53	=53	=53
4F#	16d	4A	8.d
.	16cc	.	.
.	16b	.	.
.	16cc	.	16e
8r	16a	8A	8d
.	16f#	.	.
4F#	16d	4c	8.d
.	16c	.	.
.	16A	.	.
.	16G	.	16e
8r	16F#	8c	8d
.	16E	.	.
=54	=54	=54	=54
4F#	16D	4A	8.cc
.	16F#	.	.
.	16A	.	.
.	16c	.	16dd
8r	16d	8A	8cc
.	16f#	.	.
4G	16g	4B	4b
.	16b	.	.
.	16g	.	.
.	16f#	.	.
8r	16e	8B	8b
.	16d	.	.
=55	=55	=55	=55
4C	16c	4B	8.ee
.	16e	.	.
.	16G	.	.
.	16F#	.	16dd#
8r	16E	8B	8ee
.	16D	.	.
4C	16C	4A#	8.gg
.	16D	.	.
.	16E	.	.
.	16F#	.	16ff#
8r	16G	8A#	8ee
.	16E	.	.
=56	=56	=56	=56
[2BB	4.G	4.A#	4.ee
.	4F#	4B	4dd#
8BB]	.	.	.
8r	8r	8r	8dd
=57	=57	=57	=57
16GG	4G	4b	8.dd
16G	.	.	.
16F#	.	.	.
16G	.	.	16cc#
16D	8r	8b	8dd
16BB	.	.	.
16GG	4G	4b	8.dd
16B	.	.	.
16G	.	.	.
16F#	.	.	16cc#
16E	8r	8b	8dd
16D	.	.	.
=58	=58	=58	=58
16C	4c	4cc	8.ee
16c	.	.	.
16B	.	.	.
16c	.	.	16dd#
16A	8A	8c	8ee
16G	.	.	.
16F#	4F#	4d	4a
16G	.	.	.
16A	.	.	.
16D	.	.	.
16E	8d	8a	8cc
16F#	.	.	.
=59	=59	=59	=59
16G	4G	4d	8.b
16F#	.	.	.
16E	.	.	.
16D	.	.	16cc
16C	8r	8g	8dd
16BB	.	.	.
16C	4c	4e	8.a
16D	.	.	.
16C	.	.	.
16BB	.	.	16b
16AA	8r	8c	8cc
16C	.	.	.
=60	=60	=60	=60
16D	[2d	4.B	4.g
16d	.	.	.
16c#	.	.	.
16d	.	.	.
16c#	.	.	.
16d	.	.	.
16D	.	4A	4f#
16F#	.	.	.
16A	8d]	.	.
16d	.	.	.
16A	8r	8r	8d
16F#	.	.	.
=61	=61	=61	=61
16D	4F#	4A	8.d
16c	.	.	.
16B	.	.	.
16c	.	.	16e
16A	8F#	8A	8d
16F#	.	.	.
16D	4F#	4A	8.d
16C	.	.	.
16AA	.	.	.
16GG	.	.	16e
16FF#	8F#	8A	8d
16EE	.	.	.
=62	=62	=62	=62
16DD	4A	4f#	8.cc
16FF#	.	.	.
16AA	.	.	.
16C	.	.	16dd
16D	8F#	8a	8cc
16F#	.	.	.
16G	4G	4d	4b
16B	.	.	.
16G	.	.	.
16F#	.	.	.
16E	8g	8b	8b
16D	.	.	.
=63	=63	=63	=63
16C	4g	4b	8.ee
16E	.	.	.
16F#	.	.	.
16G	.	.	16dd#
16A	8g	8b	8ee
16B	.	.	.
16c	4g	4a#	8.gg
16B	.	.	.
16c	.	.	.
16d	.	.	16ff#
8c	8e	8a#	8ee
=64	=64	=64	=64
8B	4.g	4.a#	4.ee
8BB	.	.	.
8BB	.	.	.
4BB	4f#	4b	4dd#
8r	8r	8r	8dd
=65	=65	=65	=65
4B	16b	4f#	8.dd
.	16dd	.	.
.	16b	.	.
.	16a	.	16cc#
8r	16g	8f#	8dd
.	16f#	.	.
4E	16e	4g	8.ee
.	16f#	.	.
.	16g	.	.
.	16e	.	16dd
8r	16f#	8g	8ee
.	16g	.	.
=66	=66	=66	=66
4A	16a	4e	8.cc#
.	16b	.	.
.	16a	.	.
.	16g	.	16b
8r	16f#	8e	8cc#
.	16e	.	.
4D	16d	4f#	4dd
.	16e	.	.
.	16f#	.	.
.	16d	.	.
8r	16e	8a	8cc
.	16f#	.	.
=67	=67	=67	=67
4G	16g	4d	8.b
.	16f#	.	.
.	16e	.	.
.	16d	.	16cc
8r	16c	8B	8dd
.	16B	.	.
4C	16c	4e	8.a
.	16d	.	.
.	16c	.	.
.	16B	.	16b
8r	16A	8c	8cc
.	16c	.	.
=68	=68	=68	=68
[2D	16d	4.B	4.g
.	16dd	.	.
.	16cc#	.	.
.	16dd	.	.
.	16cc#	.	.
.	16dd	.	.
.	16d	4A	4f#
.	16e	.	.
8D]	16d	.	.
.	16c	.	.
8r	16B	8r	8d
.	16A	.	.
=69	=69	=69	=69
4G#	16G#	4d 4B	8.e
.	16B	.	.
.	16e	.	.
.	16g#	.	16f#
8r	16b	8d 8B	8e
.	16dd	.	.
4A	16cc	4c	8.e
.	16dd	.	.
.	16cc	.	.
.	16b	.	16a
8r	16a	8r	8cc
.	16g	.	.
=70	=70	=70	=70
4F#	16f#	4c	8.d
.	16g	.	.
.	16a	.	.
.	16d	.	16e
8r	16e	8c	8d
.	16f#	.	.
4G	16g	4B	8.d
.	16f#	.	.
.	16e	.	.
.	16d	.	16g
8r	16c	8d	8b
.	16B	.	.
=71	=71	=71	=71
4C	16c	4e	8.a
.	16C	.	.
.	16c	.	.
.	16B	.	16b
8r	16A	8e	8cc
.	16c	.	.
4D	16d	4B	8.g
.	16dd	.	.
.	16cc#	.	.
.	16dd	.	16a
8r	16cc	8A	8f#
.	16a	.	.
=72	=72	=72	=72
[2GG	4.f#	4.A	4.a
.	4g	4B	4g
8GG]	.	.	.
8r	8r	8r	8dd
=73	=73	=73	=73
16B	4B	4f#	8.dd
16d	.	.	.
16B	.	.	.
16A	.	.	16cc#
16G	8B	8f#	8dd
16F#	.	.	.
16E	4B	4g	8.ee
16F#	.	.	.
16G	.	.	.
16E	.	.	16dd
16F#	8B	8g	8ee
16G	.	.	.
=74	=74	=74	=74
16A	4A	4e	8.cc#
16B	.	.	.
16A	.	.	.
16G	.	.	16b
16F#	8A	8e	8cc#
16E	.	.	.
16D	4A	4f#	4dd
16E	.	.	.
16F#	.	.	.
16D	.	.	.
16E	8d	8a	8cc
16F#	.	.	.
=75	=75	=75	=75
16G	4d	4d	8.b
16F#	.	.	.
16E	.	.	.
16D	.	.	16cc
16C	8d	8g	8dd
16BB	.	.	.
16C	4e	4e	8.a
16D	.	.	.
16C	.	.	.
16BB	.	.	16b
16AA	8e	8c	8cc
16C	.	.	.
=76	=76	=76	=76
16D	[2d	4.B	4.g
16d	.	.	.
16c#	.	.	.
16d	.	.	.
16c#	.	.	.
16d	.	.	.
16D	.	4A	4f#
16E	.	.	.
16D	8d]	.	.
16C	.	.	.
16BB	8r	8r	8d
16AA	.	.	.
=77	=77	=77	=77
16GG#	4B	4d	8.e
16BB	.	.	.
16E	.	.	.
16G#	.	.	16f#
16B	8B	8d	8e
16d	.	.	.
16c	4A	4c	8.e
16d	.	.	.
16c	.	.	.
16B	.	.	16a
16A	8c	8c	8cc
16G	.	.	.
=78	=78	=78	=78
16F#	4A	4c	8.d
16G	.	.	.
16A	.	.	.
16D	.	.	16e
16E	8A	8c	8d
16F#	.	.	.
16G	4B	4B	8.d
16F#	.	.	.
16E	.	.	.
16D	.	.	16g
16C	8B	8d	8b
16BB	.	.	.
=79	=79	=79	=79
16C	4c	4e	8.a
16CC	.	.	.
16C	.	.	.
16BB	.	.	16b
16AA	8c	8c	8cc
16C	.	.	.
16D	4d	4B	8.g
16d	.	.	.
16c#	.	.	.
16d	.	.	16a
16c	8F#	8A	8f#
16A	.	.	.
=80	=80	=80	=80
16GG	4.F#	4.c	4.a
16G	.	.	.
16F#	.	.	.
16G	.	.	.
16F#	.	.	.
16G	.	.	.
4GG	4G	4B	4g
8r	8r	8r	8dd
=81	=81	=81	=81
4G	4d	4b	8dd
.	.	.	16b
.	.	.	16cc
8G	8d	8b	8dd
4G	4d	4b	8dd
.	.	.	16b
.	.	.	16cc
8G	8g	8b	8dd
=82	=82	=82	=82
4C	4g	4cc	8ee
.	.	.	16ee
.	.	.	16dd
8C	8g	8e	8ee
4D	4f#	4f#	4a
8D	8f#	8a	8cc
=83	=83	=83	=83
4G	4g	4d	8b
.	.	.	16b
.	.	.	16cc
8GG	8d	8B	8dd
4C	4e	4e	8a
.	.	.	16a
.	.	.	16b
8C	8e	8c	8cc
=84	=84	=84	=84
[2D	[2d	4.B	4.g
.	.	4A	4f#
8D]	8d]	.	.
8r	8r	8r	8d
=85	=85	=85	=85
4F#	4A	4c	8d
.	.	.	16d
.	.	.	16e
8F#	8A	8c	8d
4F#	4A	4c	8d
.	.	.	16d
.	.	.	16e
8F#	8A	8c	8d
=86	=86	=86	=86
4F#	4d	4A	8aa 8cc 8d
.	.	.	8cc
8F#	8d	8A	8cc
4G	4d	4B	4b
8BB	8G	8b	8gg
=87	=87	=87	=87
4C	4c	4e	8a
.	.	.	16a
.	.	.	16b
8r	8r	8r	8cc
4D	4A	4c	8d
.	.	.	16d
.	.	.	16e
8r	8r	8r	8f#
=88	=88	=88	=88
4G	4G	8g 8B	4g
.	.	16g	.
.	.	16f#	.
4.r	2r	8g	4.r
.	.	8g	.
.	.	16g	.
.	.	16f#	.
8e	.	8g	8gg
=89	=89	=89	=89
4d	2.r	8g	8ff#
.	.	16g	16ff#
.	.	16f#	16gg
8c	.	8g	8ee
4B	.	8g	8dd
.	.	16g	16dd
.	.	16f#	16ee
8A	.	8g	8cc
=90	=90	=90	=90
4G	8G	8g	8b
.	16G	16g	16b
.	16F#	16f#	16dd
8A	8G	8g	8cc#
4B	4G	8g	4dd
.	.	16g	.
.	.	16f#	.
8e	8r	8g	8gg
=91	=91	=91	=91
8d	2.r	8g	8ff#
16d	.	16g	16ff#
16e	.	16f#	16gg
8c	.	8g	8ee
8B	.	8g	8dd
16B	.	16g	16dd
16c	.	16f#	16ee
8A	.	8g	8cc
=92	=92	=92	=92
4G	8G	8g	8b
.	16G	16g	16b
.	16F#	16f#	16dd
8A	8G	8g	8cc#
4B	4G	8g	4dd
.	.	16g	.
.	.	16f#	.
8BB	8r	8g	8gg
=93	=93	=93	=93
4C	4c	4e	8a
.	.	.	16a
.	.	.	16b
8r	8r	8r	8cc
4D	4A	4c	8d
.	.	.	16d
.	.	.	16e
8r	8r	8r	8f#
=94	=94	=94	=94
8G	4G	4B	4g
16G	.	.	.
16F#	.	.	.
8G	4.r	4.r	4.r
8G	.	.	.
16G	.	.	.
16F#	.	.	.
8G	8e	8g	8g
=95	=95	=95	=95
8G	8d	8f	4b
16G	16d	16f	.
16F#	16e	16g	.
8G	8c	8e	8cc
8G	4B	4d	4ff
16G	.	.	.
16F#	.	.	.
8G	8c	8e	8ee
=96	=96	=96	=96
8G	4B	4d	4b
16G	.	.	.
16F#	.	.	.
8G	8A	8c	8cc
8G	4G	4B	4dd
16G	.	.	.
16F#	.	.	.
8G	8e	8g	8g
=97	=97	=97	=97
8G	8d	8f	4b
16G	16d	16f	.
16F#	16e	16g	.
8G	8c	8e	8cc
8G	4B	4d	4ff
16G	.	.	.
16F#	.	.	.
8G	8c	8e	8ee
=98	=98	=98	=98
8G	4B	4d	4b
16G	.	.	.
16F#	.	.	.
8G	8A	8c	8cc
8G	4G	4B	4dd
16G	.	.	.
16F#	.	.	.
8G	8r	8r	8gg
=99	=99	=99	=99
4C	4c	4e	8a
.	.	.	16a
.	.	.	16b
8r	8r	8r	8cc
4D	4A	4c	8d
.	.	.	16d
.	.	.	16e
8r	8r	8r	8f#
=100	=100	=100	=100
8G	8g	8gg	8gg
16G	16g	16gg	16gg
16F#	16f#	16ff#	16ff#
8G	8g	8gg	8gg
8E	8e	8ee	8ee
16E	16e	16ee	16ee
16D	16d	16dd	16dd
8E	8e	8ee	8ee
=101	=101	=101	=101
4C	4c	8cc	8cc
.	.	8ee	8ccc
8r	4r	8ee	8ccc
4D	.	8r	8r
.	8a	8cc	8ff#
8r	8a	8cc	8ff#
=102	=102	=102	=102
8G	8g	8gg	8gg
16G	16g	16gg	16gg
16F#	16f#	16ff#	16ff#
8G	8g	8gg	8gg
8E	8e	8ee	8ee
16E	16e	16ee	16ee
16D	16d	16dd	16dd
8E	8e	8ee	8ee
=103	=103	=103	=103
4C	4c	8cc	8cc
.	.	8ccc	8eee
8r	4r	8ccc	8eee
4D	.	8r	8r
.	8a	8cc	8ff#
8r	8a	8cc	8ff#
=104	=104	=104	=104
4G	4g	4b	4gg
2r	2r	8r	8r
.	.	4f#	4cc
.	.	8r	8r
=105	=105	=105	=105
4.r	4.r	4g	4b
.	.	8r	8r
4D	4cc 4d	4ff# 4a 4d	4d 4ff# 4a
8r	8r	8r	8r
=106	=106	=106	=106
4GG	4b 4G 4d	4b 4gg 4d	4gg 4b 4d
2r	2r	2r	2r
==	==	==	==
*-	*-	*-	*-
!!!RWG1: This file contains only pitch and duration data.
!!!RWG2: Transposing instruments are not transposed.
!!!RWG3: Spines may have incompatible meters.
!!!RWG4: Durations of rests and tied notes may be interpreted.
!!!RWG: Key is interpreted using the Humdrum key tool.
!!!GTL: 6 Quators ("Jungfernquartette")
!!!OPT: How do you do?
!!!AFT: stage1
!!!END: 1997/04/15
!!!KEY: 2808903527
!!!EMD: Converted from MuseData to Humdrum Dec 16, 2000, by Andreas Kornstaedt using muse2kern.
!!!EMD: Manual editing by Craig Sapp, Nov 2001
